images/agency_ico.svg

<svg width="40" height="40" viewBox="0 0 40 40" fill="none" xmlns="http://www.w3.org/2000/svg">
<path d="M19.9998 0.000488281L20.338 9.12605C20.5449 14.709 25.0246 19.1865 30.6077 19.3905L39.9998 19.7338L30.6077 20.0771C25.0246 20.2812 20.5449 24.7586 20.338 30.3416L19.9998 39.4672L19.6615 30.3416C19.4546 24.7586 14.9749 20.2812 9.3918 20.0771L-0.000244141 19.7338L9.3918 19.3905C14.9749 19.1865 19.4546 14.709 19.6615 9.12605L19.9998 0.000488281Z" fill="white"/>
</svg>

<svg width="40" height="40" fill="none" xmlns="http://www.w3.org/2000/svg"><path d="m20 0 .338 9.126a10.667 10.667 0 0 0 10.27 10.264l9.392.344-9.392.343a10.667 10.667 0 0 0-10.27 10.265L20 39.467l-.338-9.125a10.667 10.667 0 0 0-10.27-10.265L0 19.734l9.392-.344a10.667 10.667 0 0 0 10.27-10.264L20 0Z" fill="#fff"/></svg>
